X:98
T:Neily Cleere's
R:polka
S:Dudde. "The Ballyvourney Polka", #38, was played after it.
Z:id:hn-polka-98
M:2/4
L:1/8
K:Dmix
FG|A>A AB|cA FG|AB c/B/A|G2 FG|A>A AB|cA ^ef|ed AF|G2:|
|:fg|a>g fa|ge fg|ag fa|g2 fg|a>g fa|ge fe|ed AF|G2:|
<end>
<start>
